packages/design-assets/icons/16px/Structure.svg

<svg width="16" height="16" xmlns="http://www.w3.org/2000/svg"><path d="M6 12h4v4H6v-4zM6 0h4v4H6V0zm6 12h4v4h-4v-4zM0 12h4v4H0v-4zm3-3v2H1V8c0-.6.4-1 1-1h5V5h2v2h5c.6 0 1 .4 1 1v3h-2V9H9v2H7V9H3z" fill="#818F99" fill-rule="evenodd"/></svg>

<?xml version="1.0" encoding="UTF-8"?>
<svg width="16px" height="16px" viewBox="0 0 16 16" version="1.1" xmlns="http://www.w3.org/2000/svg" xmlns:xlink="http://www.w3.org/1999/xlink">
    <!-- Generator: Sketch 54.1 (76490) - https://sketchapp.com -->
    <title>Icons/16px/Structure</title>
    <desc>Created with Sketch.</desc>
    <g id="Icons/16px/Structure" stroke="none" stroke-width="1" fill="none" fill-rule="evenodd">
        <path d="M6,12 L10,12 L10,16 L6,16 L6,12 Z M6,0 L10,0 L10,4 L6,4 L6,0 Z M12,12 L16,12 L16,16 L12,16 L12,12 Z M0,12 L4,12 L4,16 L0,16 L0,12 Z M3,9 L3,11 L1,11 L1,8 C1,7.4 1.4,7 2,7 L7,7 L7,5 L9,5 L9,7 L14,7 C14.6,7 15,7.4 15,8 L15,11 L13,11 L13,9 L9,9 L9,11 L7,11 L7,9 L3,9 Z" id="i-16-structure" fill="#818F99"></path>
    </g>
</svg>
